!!!OTL: WOHLAUF IHR LIEBEN LEUTE
!!!ARE: Europa, Mitteleuropa, Deutschland
!!!SCT: F0320
!!!YEM: Copyright 1995, estate of Helmut Schaffrath.
**kern
*ICvox
*Ivox
*M6/8
*k[]
*C:
{8G
=1
4c
8c
4c
8c
=2
4.e
4c}
{8e
=3
4d
8c
4B
8A
=4
4.G
4r}
{8G
=5
4d
8d
4d
8d
=6
4.f
4d}
{8f
=7
4e
8d
4c
8B
=8
4.c
4r}
==
!!!AGN: Jugend - Lied, Wander - Lied
!!!ONB: ESAC (Essen Associative Code) Database: FINK
!!!AMT: compound duple
!!!AIN: vox
!!!EED: Helmut Schaffrath
!!!EEV: 1.0
*-
